material/.icons/material/order-bool-descending-variant.svg

<svg xmlns="http://www.w3.org/2000/svg" viewBox="0 0 24 24"><path d="M4 3c-1.11 0-2 .89-2 2v4c0 1.11.89 2 2 2h4c1.11 0 2-.89 2-2V5c0-1.11-.89-2-2-2m.2 1.5l1.06 1.05L5.27 9.5 2.74 6.95 3.81 5.9l1.47 1.49M4 13c-1.11 0-2 .89-2 2v4c0 1.11.89 2 2 2h4c1.11 0 2-.89 2-2v-4c0-1.11-.89-2-2-2m-4 2h4v4H4m8-14h10v2H12m0 12v-2h10v2m-10-8h10v2H12z"/></svg>

<?xml version="1.0" encoding="UTF-8"?><!DOCTYPE svg PUBLIC "-//W3C//DTD SVG 1.1//EN" "http://www.w3.org/Graphics/SVG/1.1/DTD/svg11.dtd"><svg xmlns="http://www.w3.org/2000/svg" xmlns:xlink="http://www.w3.org/1999/xlink" version="1.1" id="mdi-order-bool-descending-variant" width="24" height="24" viewBox="0 0 24 24"><path d="M4 3C2.89 3 2 3.89 2 5V9C2 10.11 2.89 11 4 11H8C9.11 11 10 10.11 10 9V5C10 3.89 9.11 3 8 3M8.2 4.5L9.26 5.55L5.27 9.5L2.74 6.95L3.81 5.9L5.28 7.39M4 13C2.89 13 2 13.89 2 15V19C2 20.11 2.89 21 4 21H8C9.11 21 10 20.11 10 19V15C10 13.89 9.11 13 8 13M4 15H8V19H4M12 5H22V7H12M12 19V17H22V19M12 11H22V13H12Z" /></svg>
